src/components/00-materials/images-raw/Wheelchair Man.svg

<svg width="96" height="96" viewBox="0 0 96 96" fill="none" xmlns="http://www.w3.org/2000/svg">
<path d="M58.39 58.9998C62.15 58.8098 65.54 58.6498 66.1 58.6498L69.82 70.2698C69.9855 70.8344 70.2672 71.3581 70.6471 71.8074C71.0269 72.2567 71.4965 72.6216 72.0257 72.8787C72.555 73.1358 73.1321 73.2794 73.7201 73.3002C74.3081 73.3211 74.8939 73.2187 75.44 72.9998C76.4291 72.5607 77.2212 71.7717 77.6642 70.7842C78.1071 69.7968 78.1697 68.6806 77.84 67.6498C77.84 67.6498 72.84 51.3898 72.84 51.1998C72.37 49.1398 71.2 47.5898 66.55 47.5898H48.22L46.62 40.2798H54.3C55.384 40.3001 56.4369 39.9177 57.2552 39.2065C58.0735 38.4954 58.599 37.506 58.73 36.4298C58.7813 35.8457 58.7106 35.2573 58.5224 34.702C58.3341 34.1466 58.0325 33.6365 57.6366 33.2039C57.2408 32.7714 56.7593 32.4259 56.2227 32.1893C55.6862 31.9527 55.1064 31.8303 54.52 31.8298H44.76L43.76 27.2498C43.5608 26.3342 43.1832 25.4669 42.6486 24.6974C42.1141 23.9279 41.4331 23.2713 40.6446 22.7651C39.8561 22.259 38.9756 21.9132 38.0534 21.7476C37.1312 21.5819 36.1853 21.5997 35.27 21.7998L34.47 21.9798C32.6489 22.3788 31.0565 23.4753 30.0341 25.0342C29.0116 26.5931 28.6404 28.4905 29 30.3198L32.6 46.8798" stroke="#00008F" stroke-width="2" stroke-linecap="round" stroke-linejoin="round"/>
<path d="M31.14 40.1698H54.84C56.4276 40.1726 57.9726 40.6838 59.2485 41.6286C60.5244 42.5734 61.4641 43.902 61.93 45.4198L70.83 73.5498M28.85 28.1498H20.59M27 10.9998C26.715 12.0504 26.6397 13.1468 26.7785 14.2264C26.9173 15.3061 27.2673 16.3479 27.8087 17.2922C28.3501 18.2366 29.0721 19.0651 29.9337 19.7304C30.7952 20.3957 31.7794 20.8848 32.83 21.1698C33.8805 21.4548 34.977 21.53 36.0566 21.3913C37.1363 21.2525 38.178 20.9024 39.1224 20.3611C40.0668 19.8197 40.8953 19.0976 41.5606 18.2361C42.2259 17.3745 42.715 16.3904 43 15.3398C43.5399 13.2384 43.2282 11.0088 42.1326 9.13608C41.0371 7.26334 39.2463 5.89898 37.15 5.3398C36.1195 5.01225 35.0334 4.89697 33.9572 5.00094C32.881 5.1049 31.837 5.42594 30.8883 5.94467C29.9397 6.4634 29.106 7.16905 28.4377 8.019C27.7694 8.86894 27.2803 9.84554 27 10.8898V10.9998Z" stroke="#00008F" stroke-width="2" stroke-linecap="round" stroke-linejoin="round"/>
<path d="M38.19 90.9999C50.3458 90.9999 60.2 81.1233 60.2 68.9399C60.2 56.7565 50.3458 46.8799 38.19 46.8799C26.0342 46.8799 16.18 56.7565 16.18 68.9399C16.18 81.1233 26.0342 90.9999 38.19 90.9999Z" stroke="#00008F" stroke-width="2" stroke-linecap="round" stroke-linejoin="round"/>
<path d="M73.01 90.9198C77.8701 90.9198 81.81 86.9709 81.81 82.0998C81.81 77.2286 77.8701 73.2798 73.01 73.2798C68.1499 73.2798 64.21 77.2286 64.21 82.0998C64.21 86.9709 68.1499 90.9198 73.01 90.9198Z" stroke="#00008F" stroke-width="2" stroke-linecap="round" stroke-linejoin="round"/>
</svg>

<svg width="96" height="96" viewBox="0 0 96 96" fill="none" xmlns="http://www.w3.org/2000/svg"><path d="M58.39 59c3.76-.19 7.15-.35 7.71-.35l3.72 11.62A4.22 4.22 0 0075.44 73a4.39 4.39 0 002.4-5.35s-5-16.26-5-16.45c-.47-2.06-1.64-3.61-6.29-3.61H48.22l-1.6-7.31h7.68a4.38 4.38 0 004.43-3.85 4.23 4.23 0 00-4.21-4.6h-9.76l-1-4.58a7.13 7.13 0 00-8.49-5.45l-.8.18A7.13 7.13 0 0029 30.32l3.6 16.56" stroke="#00008F" stroke-width="2" stroke-linecap="round" stroke-linejoin="round"/><path d="M31.14 40.17h23.7a7.43 7.43 0 017.09 5.25l8.9 28.13m-41.98-45.4h-8.26M27 11a8.288 8.288 0 0012.122 9.361A8.29 8.29 0 0043 15.34a8.23 8.23 0 00-5.85-10A8 8 0 0027 10.89V11z" stroke="#00008F" stroke-width="2" stroke-linecap="round" stroke-linejoin="round"/><path d="M38.19 91c12.156 0 22.01-9.877 22.01-22.06 0-12.183-9.854-22.06-22.01-22.06-12.156 0-22.01 9.877-22.01 22.06C16.18 81.123 26.034 91 38.19 91zM73.01 90.92c4.86 0 8.8-3.95 8.8-8.82 0-4.871-3.94-8.82-8.8-8.82-4.86 0-8.8 3.949-8.8 8.82 0 4.87 3.94 8.82 8.8 8.82z" stroke="#00008F" stroke-width="2" stroke-linecap="round" stroke-linejoin="round"/></svg>
